images/icon/mw_c.svg

<svg width="32" height="32" viewBox="0 0 32 32" fill="none" xmlns="http://www.w3.org/2000/svg">
<g clip-path="url(#clip0)">
<path d="M15.86 31.55C24.4922 31.55 31.49 24.5477 31.49 15.91C31.49 7.27225 24.4922 0.269989 15.86 0.269989C7.22777 0.269989 0.22998 7.27225 0.22998 15.91C0.22998 24.5477 7.22777 31.55 15.86 31.55Z" fill="#89663D"/>
<path d="M20.45 15.89C19.98 17.22 19.57 18.43 19.15 19.63C18.95 20.22 18.73 20.82 18.54 21.42C18.4974 21.653 18.3735 21.8632 18.1904 22.0134C18.0072 22.1636 17.7768 22.2439 17.54 22.24C17.3102 22.2461 17.0853 22.1729 16.9032 22.0327C16.721 21.8924 16.5928 21.6937 16.54 21.47C15.68 19.05 14.8 16.64 13.95 14.22C13.74 13.62 13.95 13.22 14.42 13.01C14.89 12.8 15.42 13.01 15.59 13.66C16.25 15.58 16.89 17.51 17.59 19.54C18.15 17.85 18.68 16.25 19.2 14.65C19.31 14.32 19.43 14 19.53 13.65C19.598 13.4535 19.7255 13.2831 19.8949 13.1625C20.0643 13.0419 20.2671 12.9771 20.475 12.9771C20.6829 12.9771 20.8857 13.0419 21.055 13.1625C21.2244 13.2831 21.352 13.4535 21.42 13.65C22.01 15.46 22.61 17.28 23.21 19.09C23.21 19.21 23.3 19.32 23.36 19.48C23.99 17.61 24.6 15.77 25.22 13.94C25.27 13.79 25.31 13.63 25.37 13.48C25.4079 13.3737 25.4666 13.276 25.5427 13.1926C25.6187 13.1092 25.7107 13.0419 25.8131 12.9944C25.9155 12.9469 26.0263 12.9203 26.1391 12.9161C26.2519 12.9119 26.3643 12.9302 26.47 12.97C26.5875 12.9965 26.6974 13.0494 26.7912 13.1249C26.8851 13.2003 26.9605 13.2962 27.0117 13.4052C27.0628 13.5143 27.0883 13.6336 27.0863 13.754C27.0843 13.8744 27.0548 13.9927 27 14.1C26.62 15.18 26.23 16.25 25.84 17.32C25.36 18.68 24.84 20.04 24.39 21.41C24.3411 21.6517 24.2096 21.8688 24.0179 22.0239C23.8263 22.1791 23.5865 22.2626 23.34 22.26C22.8 22.26 22.54 21.87 22.34 21.39C21.72 19.6 21.11 17.82 20.45 15.89Z" fill="black"/>
<path d="M10.85 16.23C10.16 17.23 9.57998 18.14 8.98998 19.01C8.39998 19.88 7.83998 20 7.19998 19C6.55998 18 5.99998 17.21 5.28998 16.15C5.28998 17.97 5.28998 19.6 5.28998 21.23C5.3231 21.4334 5.27741 21.6419 5.16221 21.8128C5.04702 21.9837 4.87099 22.1043 4.66998 22.15C4.54855 22.1754 4.42296 22.1733 4.30246 22.1438C4.18195 22.1142 4.0696 22.0581 3.97366 21.9794C3.87773 21.9007 3.80064 21.8016 3.74809 21.6892C3.69554 21.5768 3.66885 21.454 3.66998 21.33C3.66998 18.84 3.66998 16.33 3.66998 13.85C3.65221 13.66 3.70291 13.47 3.81293 13.3141C3.92295 13.1583 4.08505 13.0469 4.26998 13C4.49474 12.9181 4.74142 12.9194 4.96526 13.0038C5.1891 13.0882 5.37527 13.2501 5.48998 13.46C6.15998 14.46 6.81998 15.56 7.48998 16.61C7.66998 16.9 7.85998 17.19 8.09998 17.55C8.53998 16.88 8.93998 16.27 9.33998 15.64C9.73998 15.01 10.25 14.23 10.69 13.53C10.7934 13.3006 10.9796 13.1186 11.2113 13.0203C11.4429 12.9221 11.7032 12.9148 11.94 13C12.5 13.16 12.62 13.59 12.63 14.09V21C12.63 21.74 12.28 22.15 11.72 22.14C11.16 22.13 10.85 21.72 10.85 20.97V16.23Z" fill="black"/>
<path d="M28.12 10.75C28.1217 10.9027 28.0918 11.0541 28.0323 11.1947C27.9728 11.3353 27.8849 11.4622 27.7742 11.5673C27.6634 11.6724 27.5322 11.7536 27.3887 11.8056C27.2451 11.8577 27.0924 11.8796 26.94 11.87C26.7098 11.8659 26.486 11.7934 26.2971 11.6617C26.1083 11.53 25.9629 11.345 25.8795 11.1304C25.7961 10.9159 25.7784 10.6813 25.8287 10.4566C25.879 10.2319 25.9951 10.0273 26.1621 9.86882C26.3291 9.71031 26.5395 9.60509 26.7665 9.56654C26.9935 9.528 27.2268 9.55787 27.4367 9.65237C27.6467 9.74686 27.8238 9.9017 27.9455 10.0972C28.0671 10.2926 28.1279 10.5199 28.12 10.75V10.75Z" fill="black"/>
<path d="M21.61 10.75C21.6117 10.9027 21.5818 11.0541 21.5223 11.1947C21.4628 11.3353 21.375 11.4622 21.2642 11.5673C21.1535 11.6724 21.0222 11.7536 20.8787 11.8056C20.7351 11.8577 20.5824 11.8796 20.43 11.87C20.2692 11.8811 20.1079 11.8585 19.9563 11.8038C19.8048 11.749 19.6662 11.6633 19.5496 11.552C19.433 11.4408 19.3409 11.3065 19.2791 11.1577C19.2173 11.0088 19.1872 10.8487 19.1906 10.6876C19.1941 10.5265 19.2311 10.3679 19.2993 10.2219C19.3675 10.0759 19.4654 9.94565 19.5867 9.83956C19.708 9.73347 19.8501 9.65382 20.0039 9.60568C20.1577 9.55755 20.3198 9.54199 20.48 9.56C20.6332 9.5612 20.7845 9.59324 20.925 9.65423C21.0655 9.71522 21.1923 9.8039 21.2978 9.91497C21.4032 10.026 21.4852 10.1572 21.5389 10.3007C21.5925 10.4442 21.6167 10.597 21.61 10.75Z" fill="black"/>
<path d="M15.1 10.75C15.1017 10.9027 15.0719 11.0541 15.0124 11.1947C14.9529 11.3353 14.865 11.4622 14.7542 11.5673C14.6435 11.6724 14.5122 11.7536 14.3687 11.8056C14.2252 11.8577 14.0724 11.8796 13.92 11.87C13.6898 11.8659 13.466 11.7934 13.2772 11.6617C13.0883 11.53 12.9429 11.345 12.8595 11.1304C12.7761 10.9159 12.7584 10.6813 12.8088 10.4566C12.8591 10.2319 12.9751 10.0273 13.1421 9.86882C13.3091 9.71031 13.5195 9.60509 13.7465 9.56654C13.9735 9.528 14.2068 9.55787 14.4168 9.65237C14.6267 9.74686 14.8038 9.9017 14.9255 10.0972C15.0472 10.2926 15.1079 10.5199 15.1 10.75V10.75Z" fill="black"/>
<path d="M9.34002 10.75C9.34032 10.9032 9.3092 11.0548 9.24859 11.1954C9.18797 11.3361 9.09916 11.4628 8.98763 11.5678C8.87609 11.6728 8.74422 11.7537 8.60015 11.8057C8.45608 11.8577 8.30288 11.8796 8.15001 11.87C7.92029 11.8639 7.69755 11.7898 7.51004 11.6569C7.32253 11.524 7.17871 11.3385 7.09683 11.1237C7.01495 10.909 6.99868 10.6748 7.05011 10.4508C7.10153 10.2269 7.21832 10.0232 7.38567 9.8657C7.55301 9.7082 7.76337 9.60396 7.99005 9.56619C8.21673 9.52842 8.44952 9.55883 8.65889 9.65357C8.86827 9.74831 9.04478 9.9031 9.16604 10.0983C9.28731 10.2935 9.34786 10.5203 9.34002 10.75Z" fill="black"/>
</g>
<defs>
<clipPath id="clip0">
<rect width="31.49" height="31.55" fill="white"/>
</clipPath>
</defs>
</svg>

<svg xmlns="http://www.w3.org/2000/svg" xmlns:xlink="http://www.w3.org/1999/xlink" viewBox="0 0 31.26 31.28"><defs><style>.cls-1{fill:none;}.cls-2{clip-path:url(#clip-path);}.cls-3{fill:#b0935b;}</style><clipPath id="clip-path" transform="translate(-0.23 -0.27)"><rect class="cls-1" width="31.49" height="31.55"/></clipPath></defs><g id="Layer_2" data-name="Layer 2"><g id="Layer_1-2" data-name="Layer 1"><g class="cls-2"><path class="cls-3" d="M15.86,31.55A15.64,15.64,0,1,0,.23,15.91,15.63,15.63,0,0,0,15.86,31.55Z" transform="translate(-0.23 -0.27)"/><path d="M20.45,15.89c-.47,1.33-.88,2.54-1.3,3.74-.2.59-.42,1.19-.61,1.79a1,1,0,0,1-2,0c-.86-2.42-1.74-4.83-2.59-7.25A.87.87,0,0,1,14.42,13a.83.83,0,0,1,1.17.65c.66,1.92,1.3,3.85,2,5.88.56-1.69,1.09-3.29,1.61-4.89.11-.33.23-.65.33-1a1.05,1.05,0,0,1,.36-.49,1,1,0,0,1,1.17,0,1.05,1.05,0,0,1,.36.49c.59,1.81,1.19,3.63,1.79,5.44a1.39,1.39,0,0,0,.15.39c.63-1.87,1.24-3.71,1.86-5.54.05-.15.09-.31.15-.46a.84.84,0,0,1,.44-.49,1,1,0,0,1,.33-.07.76.76,0,0,1,.33.05.86.86,0,0,1,.32.15.86.86,0,0,1,.3.63,1.06,1.06,0,0,1-.09.35c-.38,1.08-.77,2.15-1.16,3.22-.48,1.36-1,2.72-1.45,4.09a1.07,1.07,0,0,1-1.05.85c-.54,0-.8-.39-1-.87C21.72,19.6,21.11,17.82,20.45,15.89Z" transform="translate(-0.23 -0.27)"/><path d="M10.85,16.23c-.69,1-1.27,1.91-1.86,2.78S7.84,20,7.2,19,6,17.21,5.29,16.15v5.08a.8.8,0,0,1-.13.58.82.82,0,0,1-.49.34.77.77,0,0,1-.37,0A.84.84,0,0,1,4,22a.86.86,0,0,1-.3-.65V13.85a.8.8,0,0,1,.14-.54A.86.86,0,0,1,4.27,13,1.05,1.05,0,0,1,5,13a1,1,0,0,1,.52.46c.67,1,1.33,2.1,2,3.15.18.29.37.58.61.94.44-.67.84-1.28,1.24-1.91s.91-1.41,1.35-2.11a1,1,0,0,1,.52-.51,1,1,0,0,1,.73,0c.56.16.68.59.69,1.09V21c0,.74-.35,1.15-.91,1.14s-.87-.42-.87-1.17Z" transform="translate(-0.23 -0.27)"/><path d="M28.12,10.75a1.15,1.15,0,0,1-.35.82,1.36,1.36,0,0,1-.38.24,1.27,1.27,0,0,1-1.09-.15,1.1,1.1,0,0,1-.42-.53,1.18,1.18,0,0,1-.05-.67,1.19,1.19,0,0,1,.33-.59,1.17,1.17,0,0,1,.61-.3,1.19,1.19,0,0,1,.67.08,1.23,1.23,0,0,1,.51.45,1.13,1.13,0,0,1,.17.65Z" transform="translate(-0.23 -0.27)"/><path d="M21.61,10.75a1.12,1.12,0,0,1-.09.44,1,1,0,0,1-.26.38,1.36,1.36,0,0,1-.38.24,1.14,1.14,0,0,1-.45.06,1.2,1.2,0,0,1-.88-.32,1.05,1.05,0,0,1-.27-.39,1.27,1.27,0,0,1-.09-.47,1.12,1.12,0,0,1,.11-.47,1.33,1.33,0,0,1,.29-.38A1,1,0,0,1,20,9.61a1.53,1.53,0,0,1,.92,0,1.28,1.28,0,0,1,.38.26,1.33,1.33,0,0,1,.24.39A1.15,1.15,0,0,1,21.61,10.75Z" transform="translate(-0.23 -0.27)"/><path d="M15.1,10.75a1.15,1.15,0,0,1-.35.82,1.36,1.36,0,0,1-.38.24,1.27,1.27,0,0,1-1.09-.15,1.1,1.1,0,0,1-.42-.53,1.18,1.18,0,0,1,0-.67,1.19,1.19,0,0,1,.33-.59,1.17,1.17,0,0,1,.61-.3,1.19,1.19,0,0,1,.67.08,1.23,1.23,0,0,1,.51.45,1.13,1.13,0,0,1,.17.65Z" transform="translate(-0.23 -0.27)"/><path d="M9.34,10.75a1.2,1.2,0,0,1-.09.45,1.18,1.18,0,0,1-.26.37,1.41,1.41,0,0,1-.39.24,1.14,1.14,0,0,1-.45.06,1.22,1.22,0,0,1-.64-.21,1.15,1.15,0,0,1-.41-.54,1.1,1.1,0,0,1,0-.67,1.11,1.11,0,0,1,.34-.58,1,1,0,0,1,.6-.3,1.18,1.18,0,0,1,.67.08,1.23,1.23,0,0,1,.51.45A1.13,1.13,0,0,1,9.34,10.75Z" transform="translate(-0.23 -0.27)"/></g></g></g></svg>
